X:1
T:Loing de tes yeulx (4v)
T:Loing de tes yeulx (4v)
T:Pierre de Manchicourt
C:Pierre de Manchicourt
%%score [ 1 [ 2 3 ] 4 ]
L:1/8
Q:1/4=120
M:2/2
K:F
V:1 treble nm="Superius" snm="S"
V:2 treble-8 nm="Tenor 1" snm="T 1"
V:3 treble-8 nm="Tenor 2" snm="T 2"
V:4 bass nm="Bass" snm="B"
V:1
 G4 E2 F2 | G2 G2 B3 A | G2 F4 E2 | D2 d2 B2 c2 | d2 A2 B2 B2 | A2 G2 FD d2- | d2 cB AGFE | %7
w: Loing de tes|yeulx, t'a- mour me|vient pour- sui-|vre, loing de tes|yeulx, t'a- mour me|vient pour- sui- * *||
 DEFG AB cA | B2 A4 F2 |"^b" A2 G2 F2 E2- | ED G4 F2 | G8 | z4 d4 | B2 c2 dc BA | G2 A2 B4 | %15
w: ||||vre,|aul-|tant ou plus _ _ _|_ _ _|
 z2 G2 B2 A2 | G3 F E2 D2- | D2 C2 D2 A2 | B2 B2 A2 G2 | FD d4 cB | AG FE DEFG | AB cA B2 A2- | %22
w: qu'el- le me|scau- roit sui- *|* * vre, qu'el-|le me scau- rait|sui- * * * *|||
 A2 F2 A2 G2 | F2 E3 D G2- | G2 F2 G4 | z4 F4 | G2 B2 A4 | G2 FG AB cA | Bc d4 c2 | d4 z2 G2 | %30
w: ||* * vre,|au-|pres de toy,|_ _ _ _ _ _ _||* car|
 F2 E2 D2 A2- | A2 G2 A4 | z2 d2 c2 B2 | A3 G F2 E2- | ED D4 C2 | D4 z2 D2 | D2 D2 FEFG | %37
w: tu as pour tout,|_ _ seur,|car tu as|pour _ _ tout,|_ _ _ _|seur si|bien gra- vé _ _ _|
 A4 z2 A2 | A2 F2 G2 A2 | B2 A4 G2 | A8 | z2 G4 F2 | E4 D2 F2 | G2 G2 B2 A2- | AG G2 FD G2- | %45
w: _ de-|dens moy, ta doul-||ceur,|que mieulx|gra- ver ne|se pou- roit en-|* * cuy- * * *|
 G2 F2 G4 | z2 d4 c2 | B4 A4 | z2 F2 A2 A2 | B3 A GD d2- | d2 c2 B2 A2 | B2 AG F2 B2- | BA A4 G2- | %53
w: * * vre|en _|cuy- vre,|que mieulx gra-|ver _ _ _ ne|_ se pou- roit|en cuy- * * *||
 G2 F2 G2 G2- | G2 F2 E4 | D2 F2 G2 G2 | B2 A3 G G2 | FD G4 F2 | G4 z2 d2- | d2 c2 B4 | A4 z2 F2 | %61
w: * * vre, que|_ mieulx ne|se pou- roit en|cuy- * * *||vre, en|_ _ cuy-|vre, que|
 A2 A2 B3 A | GD d4 c2 | B2 A2 B2 AG | F2 B3 A A2- | A2 G4 F2 | G8 |] %67
w: mieulx- gra- ver _|_ _ ne se|pou- rait en cuy- *|||vre|
V:2
 z4 z2 d2 | B2 c2 d2 d2 | e2 d2 d2 g2- | g2 f2 g2 z2 | d2 f2 e2 d2- | d2 c2 d2 f2- | f2 e2 f4- | %7
w: Loing|de tes yeulx, t'a-|mour me vient pour|_ sui- vre,|loing de tes yeulx,|_ t'a- mour me|_ vient pour-|
 f2 ed c2 z2 | d2 f2 e2 d2 | cd ec d2 G2- | GA Bc d2 d2- | d2 B3 c d2 | G2 A2 B2 g2- | %13
w: * sui- * vre,|t'a- mour me vient|pour- * * * sui- *|* * * * vre, aul-|* tant _ _|ou _ plus, aul|
 g2 e2 f2 g2- | g2 fe dc BA | GA Bc d4 | B4 z4 | G4 B2 A2 | G2 d4 c2 | d2 f4 e2 | f6 ed | %21
w: _ tant ou plus|_ _ _ _ _ _ _|||qu'el- le me|scau- roit sui-|||
 c2 z2 d2 f2 | e2 d2 cd ec | d2 G3 ABc | d4 z2 B2 | c2 e2 d2 f2- | f2 e2 fe dc | Bc de f4 | %28
w: vre, qu'el- le|me scau- rait _ _ _|_ sui- * * *|vre au-|pres de _ toy|_ _ _ _ _ _||
 d4 z2 g2- | g2 f2 e2 d2- | d2 c2 d4 | z2 d4 c2 | B4 A2 d2 | c2 A2 B2 c2 | A2 B2 A4 | z2 A2 A2 A2 | %36
w: * car|_ tu as pour|_ tout, seur|car tu|as pour tout,|_ _ _ _|* * seur,|si bien gra-|
 BA Bc d2 d2 | d4 c4- | c2 d2 e2 f2 | z2 d2 d2 B2 |"^b" c2 d2 e2 d2- | d2 c2 d2 d2- | d2 c2 B2 A2 | %43
w: vé _ _ _ de- dens|moy, ta|_ doul- * ceur,|de- dens moy|ta doul- ceur, que|_ mieulx gra- ver|_ ne se pou-|
 G2 c2 d2 A2 | B2 c2 d4 |"^b" e2 d2 G2 g2- | g2 f2 e4 | d2 d2 f2 e2 | d2 f3 edc | BA Bc d4 | %50
w: roit en cuy- *||* * vre, que|_ mieulx gra-|ver ne se pou-|roit en _ _ _|cuy- * * * vre,|
 z2 g4 f2 |"^b" e4 d2 d2 |"^b" B2 d2 e2 c2 | d2 A2 BAGF | G2 d4 c2 | B2 A2 G2 c2 | d2 A2 B2 c2 | %57
w: que mieulx|gra- ver ne|se pou- roit en|cuy- * * * * *|vre, que mieulx|gra- ver ne se|pou- roit en cuy-|
"^b" d4 e2 d2 | G2 g4 f2 | e4 d2 d2 | f2 e2 d2 f2- | fedc BA Bc | d4 z2 g2- |"^b" g2 f2 e4 | %64
w: |vre que mieulx|gra- ver ne|se pou- roit en|_ _ _ _ cuy- * * *|vre, que|mieulx gra- ver|
 d2 d2 B2 d2 |"^b" e2 c2 d4 |"^-natural" B8 |] %67
w: ne se pou- roit|en cuy- *|vre.|
V:3
 z8 | z4 G4 | E2 F2 G2 G2 | B2 A3 G G2- | G2 F2 G4 | F2 E2 D4 | z4 z2 A2 | B2 B2 A2 G2 | %8
w: |Loing|de tes yeulx, t'a-|mour me _ vient|_ pour- sui-|* * vre,|t'a-|mour me vient pour-|
 F3 G A2 B2 | AB cA B2 c2- | cB G2 A4 | G2 d4 B2 | c2 d3 cBA | G2 c2 BcdB | c4 B2 G2 | B3 A G2 F2 | %16
w: sui- * * *|||vre, aul- tant|ou plus, _ _ _|_ aul- tant _ _ _|ou plus, qu'el-|le _ _ me|
 GA BG A2 B2- | BA G4 F2 | G4 F2 E2 | D4 z4 | z2 A2 B2 B2 | A2 G2 F3 G | A2 B2 AB cA | B2 c3 B G2 | %24
w: scau- * * * * roit-|* * sui- *||vre,|qu'el- le me|scau- roit sui- *|||
 A4 G2 B2- | B2 A2 B3 A | G4 F4 | z4 z2 F2 | G2 B2 A2 G2 | A4 B4 | A4 F4 | z2 G2 F2 E2 | D3 E F4 | %33
w: ||* vre,|au-|pres de toy, _|_ _||car tu as|pour _ tout|
 E2 F2 D2 E2 | F2 G2 E4 | D4 z4 | z2 D2 D2 D2 | FEFG A2 A2 | F2 A2 B2 c2 | d2 A2 B4 | A6 F2 | %41
w: _ _ _ _|* * seur,|_|si bien gra-|vé _ _ _ _ de-|dens moy, ta doul-||ceur, ta|
 E4 D4 | z2 G4 F2 | E4 D3 F | G2 G2 B4 | A2 B4 AG | A8 | z2 d4 c2 | B2 A4 F2 | G2 G2 B2 A2 | %50
w: doul- ceur,|que mieulx|gra- ver ne|se pou- roit|en cuy- * *|vre,|que mieulx|gra- ver ne|se pou- roit en|
 B2 c2 dA d2- | d2 c2 d2 G2- | G2 A2 B2 G2 | A2 d4 c2 | B3 A G2 G2- | G2 F2 E4 | D3 F G2 G2 | %57
w: cuy- * * * *||||* * vre, que|_ mieulx gra-|ver ne se pou-|
 B4 A2 B2- | B2 AG A4- | A4 z2 d2- | d2 c2 B2 A2- | A2 F2 G2 G2 | B2 A2 B2 c2 | dA d4 c2 | %64
w: roit en cuy-|* * * vre,|_ que|_ mieulx gra- ver|_ ne se pou-|roit en cuy- *||
 d2 G4 A2 | B2 G2 A4 | G8 |] %67
w: ||vre.|
V:4
 z8 | z8 | z2 D,2 B,,2 C,2 |"^b" D,2 D,2 E,4 | D,4 G,,4 | z2 G,2 B,2 A,2 | G,2 G,2 F,E, D,C, | %7
w: ||Loing de tes|yeulx, loing de|tes yeulx,|t'a- mour me|vient pour- sui- * * *|
 B,,C, D,E, F,D, E,2 | D,4 z2 D,2 | F,2 E,2 D,2 C,2 | E,4 D,4 | G,,4 G,4 | E,2 F,2 G,4 | %13
w: |vre, t'a-|mour me vient pour-|sui- *|vre, aul|tant ou plus,|
 z4 z2 G,2 | E,2 F,2 G,4- | G,4 z2 D,2 |"^b" E,3 D, C,2 B,,2 |"^b" E,4 D,4 | G,,4 z2 G,2 | %19
w: aul-|tant ou plus,-|_ qu'el-|le- me scau- roit|sui- *|vre, qu'el|
 B,2 A,2 G,2 G,2 | F,E, D,C, B,,C, D,E, | F,D, E,2 D,4 | z2 D,2 F,2 E,2 | D,2 C,2 E,4 | %24
w: le me scau- roit|sui- * * * * * * *|* * * vre,|qu'el- le me|scau- rait sui-|
 D,4 E,3 D, | C,4 B,,4 | z4 z2 F,2 | G,2 B,2 A,4 | z2 G,2 F,2 E,2 | D,4 G,,4 | A,,4 z2 D,2 | %31
w: |* vre,|au-|pres de toy,|car tu as|pour tout,|seur, au-|
 C,2 B,,2 A,,4 | B,,2 G,,2 A,,2 B,,2 | C,2 D,4 C,2 | D,2 G,,2 A,,4 | D,4 C,2 D,2 | G,,4 z2 D,2 | %37
w: as pour tout,|_ _ _ _||||seur, si|
 D,2 D,2 F,E,F,G, | A,2 D,2 G,2 F,2 | B,,2 F,2 G,4 |"^b" F,3 E, C,2 D,2 | A,,2 C,2 G,,2 B,,2 | %42
w: bien gra- vé _ _ _|de- dens moy,ta doul-||||
 C,4 D,4 | z2 G,4 F,2 | E,4 D,2 B,,2 |"^b" C,2 D,2 E,4 | D,4 A,,4 | B,,2 G,,2 A,,4 | D,8 | %49
w: * ceur,|que mieulx|gra- ver ne|se pou- roit|en cuy-||vre,|
 z2 G,4 F,2 |"^b" E,4 D,2 F,2 | G,2 A,2 B,3 A, |"^b" G,2 F,2 E,4 | D,4 B,,2 C,2 | G,,2 B,,2 C,4 | %55
w: que mieulx|gra- ver ne|se pou- roit gra-|ver en cuy-|||
 D,4 z2 G,2- | G,2 F,2 E,4 |"^b" D,2 B,,2 C,2 D,2 |"^b" E,4 D,4 | A,,4 B,,2 G,,2 | A,,4 D,4- | %61
w: vre, que|_ mieulx gra-|ver ne se pou-|roit en|cuy- * *|* vre,|
"^#" D,4 z2 G,2- |"^b" G,2 F,2 E,4 | D,2 F,2 G,2 A,2 | B,3 A, G,2 F,2 |"^b" E,4 D,4 | G,,8 |] %67
w: _ que|_ mieulx gra-|ver ne se pou-|roit en cuy- *||vre.|

